X: 10506
T: Dookin' For Beetroot
R: reel
M: 4/4
K: Adorian
A3 B AB e2|de e/e/e fged|eaag ed d/d/d|eged BGGB|
A3 B BABd|BddB fged|eaag ed d/d/d|egdB A3 z:|
|:a3 e g2 ge|e/e/e ge gaag|e2 e/e/e degd|eged BGGB|
eaae g2 ge|e/e/e ge gaag|e2 e/e/e degd|egdB A3 z:|

